!!!OTL: 781. Zaertlicher Abschied der Dorfschoenen bei ihrem Wegzuge.
!!!ODT: 1854
!!!ARE: Europa, Mitteleuropa, Deutschland, Gransee, Roennebeck
!!!SCT: E0781
!!!TXL: @@DE
!!!YEM: Copyright 1995, estate of Helmut Schaffrath.
**kern	**text
*ICvox	*
*M4/4	*
*met(c)	*
*k[f#]	*
*G:	*
=1	=1
!LO:TX:a:t=Etwas bewegt.	!
!LO:TX:a:t=Aus Rönnebeck bei Granſee 1854.	!
{4.b	Nun
8cc	a-
4b	-de,
4a	mein
=2	=2
4.g	ſchön-
8a	-ſtes
4g	Le-
4f#}	-ben,
=3	=3
{4.cc	nun
8dd	a-
4b	-de,
4dd	mein
=4	=4
4a	ſchön-
4dd	-ſter
4b	Schatʒ!
4r}	.
=5	=5
{4.b	Jch
8cc	muß
4.dd	fort,
8dd	muß
=6	=6
4cc	Ab-
8ccL	-ſchied
8ddJ	.
4b	neh-
4b}	-men,
=7	=7
{4a	ich
8aL	muß
8bJ	.
4.cc	fort
8a	und
=8	=8
4a	du
8aL	bleibſt
8bJ	.
4g	hier.
4r}	.
==	==
!!!AGN: Abschieds - Lied, Liebe
!!!ONB: ESAC (Essen Associative Code) Database: ERK2
!!!AMT: simple quadruple
!!!AIN: vox
!!!EED: Helmut Schaffrath
!!!EEV: 1.0
!!!GTL: Abschieds- und Wanderlieder
!!!URL-scan: https://rosdok.uni-rostock.de/mcrviewer/recordIdentifier/rosdok_ppn745177662/iview2/phys_0585.iview2?x=165.4478077810943&y=1084.7534438804723&scale=0.7029437510502773&rotation=0&layout=singlePageLayout
!!!ENC: Anna Maria Matuszewska
!!!EEV: 2024/12/17
*-	*-
